icons/general-target-3-filled.svg

<svg viewBox="0 0 24 24"><path fill="currentColor" d="M12 17a5 5 0 1 0 0-10 5 5 0 0 0 0 10Z"/><path fill="currentColor" fill-rule="evenodd" d="M12 .5a1 1 0 0 1 1 1v1a9.6 9.6 0 0 1 8.5 8.5h1a1 1 0 1 1 0 2h-1a9.6 9.6 0 0 1-8.5 8.5v1a1 1 0 1 1-2 0v-1a9.6 9.6 0 0 1-8.5-8.5h-1a1 1 0 1 1 0-2h1a9.6 9.6 0 0 1 8.5-8.5v-1a1 1 0 0 1 1-1Zm-7.5 12.5h.5a1 1 0 1 0 0-2h-.5a8 8 0 0 1 6.5-6.5v.5a1 1 0 1 0 2 0v-.5a8 8 0 0 1 6.5 6.5h-.5a1 1 0 1 0 0 2h.5a8 8 0 0 1-6.5 6.5v-.5a1 1 0 1 0-2 0v.5a8 8 0 0 1-6.5-6.5Z" clip-rule="evenodd"/></svg>

<svg viewBox="0 0 24 24"><path fill="currentColor" d="M12 17a5 5 0 1 0 0-10 5 5 0 0 0 0 10"/><path fill="currentColor" fill-rule="evenodd" d="M12 .5a1 1 0 0 1 1 1v1a9.6 9.6 0 0 1 8.5 8.5h1a1 1 0 1 1 0 2h-1a9.6 9.6 0 0 1-8.5 8.5v1a1 1 0 1 1-2 0v-1A9.6 9.6 0 0 1 2.5 13h-1a1 1 0 1 1 0-2h1A9.6 9.6 0 0 1 11 2.5v-1a1 1 0 0 1 1-1M4.5 13H5a1 1 0 1 0 0-2h-.5A8 8 0 0 1 11 4.5V5a1 1 0 1 0 2 0v-.5a8 8 0 0 1 6.5 6.5H19a1 1 0 1 0 0 2h.5a8 8 0 0 1-6.5 6.5V19a1 1 0 1 0-2 0v.5A8 8 0 0 1 4.5 13" clip-rule="evenodd"/></svg>
